X:1
T:Adoro Te (Van Damme), 11.11.11.11
T:From Canon Van Damme of Ghent
T:Adoro Te (Van Damme), 11.11.11.11
T:Public Domain
C:From Canon Van Damme of Ghent
Z:Public Domain
%%score ( 1 2 ) ( 3 4 )
L:1/8
M:4/4
K:Eb
V:1 treble 
V:2 treble 
V:3 bass 
V:4 bass 
V:1
 [EB]2 [CA]2 [EG]2 [EG]2 | [CA]4 [EG]4 | [EF]2 [DB]2 [CB]2 [C=A]2 | [DB]8 | %4
 [EB]2 [CA]2 [EG]2 [EG]2 | [FB]4 [EG]4 | [CF]2 E2 F2 z E x | E8 | [EB]2 [FB]2 [EG]2 [EB]2 | %9
 [Ec]4 [EB]4 | [CA]2 [EG]2 F2 [FA]2 | [EG]8 | [FB]2 [EG]2 [CA]2 [EB]2 | [Ec]4 [DB]4 | %14
 [EA]2 [EG]2 F2 z E x | E8 |] %16
V:2
 x8 | x8 | x8 | x8 | x8 | x8 | x2 E2 E3 D2 | E8 | x8 | x8 | x4 F2 x2 | x8 | x8 | x8 | x4 E3 D2 | %15
 E8 |] %16
V:3
 [E,G,]2 [F,A,]2 [G,B,]2 [E,B,]2 | [F,A,]4 [C,C]4 | [F,=A,]2 [G,B,]2 [E,G,]2 F,2 | [B,,F,]8 | %4
 [E,G,]2 [F,A,]2 [G,B,]2 [E,B,]2 | [D,B,]4 [E,B,]4 | [F,A,]2 [C,G,]2 [C,B,]2 [B,,B,]2 x | [E,G,]8 | %8
 [E,G,]2 [D,B,]2 [E,B,]2 [G,B,]2 | A,4 [E,G,]4 | [F,A,]2 [G,B,]2 [A,C]2 [F,C]2 | [C,C]8 | %12
 [D,F,]2 [E,B,]2 [F,A,]2 [E,G,]2 | [A,,A,]4 [B,,F,]4 | [C,C]2 [E,B,]2 [B,,B,]2 [B,,B,]2 x | %15
 [E,G,]8 |] %16
V:4
 x8 | x8 | x6 F,2 | x8 | x8 | x8 | x9 | x8 | x8 | A,4 x4 | x8 | x8 | x8 | x8 | x9 | x8 |] %16

